**kern
*staff1
!!pagebreak:original
*I"P1
*clefG2
*k[f#]
*M3/4
8b\L
8cc\J
=1
2dd\
8gg\L
8aa\J
=2
2bb\
8aa\L
8gg\J
=3
ff#q/
2aa\
8gg\L
8ff#\J
=4
eeq/
2gg\
8gg\L
8ee\J
=5
2a/
8gg\L
8ee\J
=6
2a/
8ff#\L
8ee\J
=7
2g/
8ff#\L
8ee\J
=8
4g/
4r
=
*-
